public/assets/routes_avatar/declareHandle.svg

<?xml version="1.0" encoding="UTF-8"?>
<svg width="60px" height="60px" viewBox="0 0 60 60" version="1.1" xmlns="http://www.w3.org/2000/svg" xmlns:xlink="http://www.w3.org/1999/xlink">
    <!-- Generator: Sketch 49.3 (51167) - http://www.bohemiancoding.com/sketch -->
    <title>纳税申报-申报办理</title>
    <desc>Created with Sketch.</desc>
    <defs>
        <path d="M23.33125,8.25234375 L14.65,0.582421875 C14.509375,0.459375 14.35625,0.35546875 14.190625,0.26796875 C14.146875,0.24609375 14.103125,0.22421875 14.05625,0.205078125 C14.028125,0.19140625 13.996875,0.18046875 13.96875,0.16953125 C13.6875,0.06015625 13.378125,0 13.0625,0 L2.28125,0 C1.0375,0 0,0.88046875 0,1.96875 L0,26.03125 C0,27.1195312 1.0375,28 2.28125,28 L21.75,28 C22.99375,28 23.96875,27.1195312 23.96875,26.03125 L23.96875,9.63867188 C23.96875,9.11914062 23.75,8.62148437 23.33125,8.25234375 Z M14.21875,3.01875 L20.49375,8.53125 L14.21875,8.53125 L14.21875,3.01875 Z M21.71875,26.03125 L2.25,26.03125 L2.25,1.96875 L11.96875,1.96875 L11.96875,8.53125 C11.96875,9.61953125 13.00625,10.5 14.25,10.5 L21.71875,10.5 L21.71875,26.03125 Z M14.25,13.234375 C14.25,12.6902344 13.746875,12.25 13.125,12.25 L5.125,12.25 C4.503125,12.25 4,12.6902344 4,13.234375 C4,13.7785156 4.503125,14.21875 5.125,14.21875 L13.125,14.21875 C13.746875,14.21875 14.25,13.7785156 14.25,13.234375 Z M20.25,17.609375 C20.25,17.0652344 19.746875,16.625 19.125,16.625 L5.125,16.625 C4.503125,16.625 4,17.0652344 4,17.609375 C4,18.1535156 4.503125,18.59375 5.125,18.59375 L19.125,18.59375 C19.746875,18.59375 20.25,18.1535156 20.25,17.609375 Z M16.25,21.984375 C16.25,21.4402344 15.746875,21 15.125,21 L5.125,21 C4.503125,21 4,21.4402344 4,21.984375 C4,22.5285156 4.503125,22.96875 5.125,22.96875 L15.125,22.96875 C15.746875,22.96875 16.25,22.5285156 16.25,21.984375 Z" id="path-1"></path>
        <path d="M25.7179687,24.4674556 L25.0320312,24.4674556 L25.0320312,23.7812884 C25.0320312,23.6257676 24.9054687,23.4991627 24.75,23.4991627 C24.5945312,23.4991627 24.4679687,23.6257676 24.4679687,23.7812884 L24.4679687,24.4674556 L23.7820312,24.4674556 C23.6265625,24.4674556 23.5,24.5940605 23.5,24.7495813 C23.5,24.9051022 23.6265625,25.031707 23.7820312,25.031707 L24.4679687,25.031707 L24.4679687,25.7178743 C24.4679687,25.8733951 24.5945312,26 24.75,26 C24.9054687,26 25.0320312,25.8733951 25.0320312,25.7178743 L25.0320312,25.031707 L25.7179687,25.031707 C25.8734375,25.031707 26,24.9051022 26,24.7495813 C26,24.593279 25.8734375,24.4674556 25.7179687,24.4674556 Z M24.75,20.7544937 C24.75,19.7854192 23.9664062,19 23,19 C22.0335937,19 21.25,19.7854192 21.25,20.7544937 C21.25,21.7235682 22.0335937,22.5089874 23,22.5089874 C23.9664062,22.5089874 24.75,21.7235682 24.75,20.7544937 Z M23,21.944736 C22.3445312,21.944736 21.8125,21.411745 21.8125,20.7544937 C21.8125,20.0972424 22.3445312,19.5642514 23,19.5642514 C23.6554687,19.5642514 24.1875,20.0972424 24.1875,20.7544937 C24.1875,21.411745 23.6554687,21.944736 23,21.944736 Z M24.640625,22.9982137 C24.16875,22.6887351 23.6054688,22.5089874 23,22.5089874 C21.3429688,22.5089874 20,23.855532 20,25.5170258 L20.0007812,25.5170258 C20.0007812,25.5224964 20,25.5271854 20,25.532656 C20,25.6881768 20.1257812,25.8147817 20.28125,25.8147817 C20.4367188,25.8147817 20.5625,25.6881768 20.5625,25.532656 C20.5625,25.5271854 20.5625,25.5224964 20.5617188,25.5170258 L20.5625,25.5170258 C20.5625,24.1673551 21.6539062,23.0732388 23,23.0732388 C23.30625,23.0732388 23.5992188,23.1295076 23.86875,23.2334487 C24.0984375,23.0990287 24.3601563,23.0154069 24.640625,22.9982137 Z" id="path-2"></path>
    </defs>
    <g id="icon" stroke="none" stroke-width="1" fill="none" fill-rule="evenodd">
        <g id="纳税申报-申报办理">
            <circle id="Oval-Copy" fill="#49A7FF" cx="30" cy="30" r="30"></circle>
            <g id="Group-60" transform="translate(15.000000, 15.000000)">
                <path d="M23,29.6923077 C19.3039405,29.6923077 16.3076923,26.6960595 16.3076923,23 C16.3076923,19.3039405 19.3039405,16.3076923 23,16.3076923 C26.6960595,16.3076923 29.6923077,19.3039405 29.6923077,23 C29.6923077,26.6960595 26.6960595,29.6923077 23,29.6923077 Z M23,28.3076923 C25.9313575,28.3076923 28.3076923,25.9313575 28.3076923,23 C28.3076923,20.0686425 25.9313575,17.6923077 23,17.6923077 C20.0686425,17.6923077 17.6923077,20.0686425 17.6923077,23 C17.6923077,25.9313575 20.0686425,28.3076923 23,28.3076923 Z" id="Oval-3" fill="#FFFFFF" fill-rule="nonzero"></path>
                <g id="Group-59">
                    <g id="Shape" fill-rule="nonzero">
                        <use fill="#FFFFFF" fill-rule="evenodd" xlink:href="#path-1"></use>
                        <path stroke="#49A7FF" stroke-width="0.3" d="M23.2320588,8.36486536 L23.231934,8.36475519 L14.5512243,0.695308379 C14.4212734,0.581601311 14.2782249,0.483894068 14.123543,0.402132829 C14.0612739,0.370998305 14.0339523,0.357996558 13.9906711,0.339983303 C13.9764503,0.333412818 13.9764503,0.333412818 13.9578228,0.325958934 C13.937501,0.318162732 13.937501,0.318162732 13.9143831,0.309331951 C13.6461513,0.205019613 13.3549591,0.15 13.0625,0.15 L2.28125,0.15 C1.10972686,0.15 0.15,0.973946296 0.15,1.96875 L0.15,26.03125 C0.15,27.0260537 1.10972686,27.85 2.28125,27.85 L21.75,27.85 C22.9085125,27.85 23.81875,27.0379559 23.81875,26.03125 L23.81875,9.63867188 C23.81875,9.15416299 23.6124083,8.70015476 23.2320588,8.36486536 Z M14.06875,2.68731713 L20.8917756,8.68125 L14.21875,8.68125 L14.06875,8.53125 L14.06875,2.68731713 Z M21.71875,26.18125 L2.25,26.18125 L2.1,26.03125 L2.1,1.96875 L2.25,1.81875 L11.96875,1.81875 L12.11875,1.96875 L12.11875,8.53125 C12.11875,9.5260537 13.0784769,10.35 14.25,10.35 L21.71875,10.35 L21.86875,10.5 L21.86875,26.03125 L21.71875,26.18125 Z M14.1,13.234375 C14.1,12.777863 13.6681565,12.4 13.125,12.4 L5.125,12.4 C4.58184345,12.4 4.15,12.777863 4.15,13.234375 C4.15,13.690887 4.58184345,14.06875 5.125,14.06875 L13.125,14.06875 C13.6681565,14.06875 14.1,13.690887 14.1,13.234375 Z M20.1,17.609375 C20.1,17.152863 19.6681565,16.775 19.125,16.775 L5.125,16.775 C4.58184345,16.775 4.15,17.152863 4.15,17.609375 C4.15,18.065887 4.58184345,18.44375 5.125,18.44375 L19.125,18.44375 C19.6681565,18.44375 20.1,18.065887 20.1,17.609375 Z M16.1,21.984375 C16.1,21.527863 15.6681565,21.15 15.125,21.15 L5.125,21.15 C4.58184345,21.15 4.15,21.527863 4.15,21.984375 C4.15,22.440887 4.58184345,22.81875 5.125,22.81875 L15.125,22.81875 C15.6681565,22.81875 16.1,22.440887 16.1,21.984375 Z"></path>
                    </g>
                    <circle id="Oval-2" fill="#49A7FF" cx="22.5" cy="22.5" r="7.5"></circle>
                    <g id="Shape" fill-rule="nonzero">
                        <use fill="#FFFFFF" fill-rule="evenodd" xlink:href="#path-2"></use>
                        <path stroke="#FFFFFF" stroke-width="0.2" d="M25.1320312,25.131707 L25.1320312,25.7178743 C25.1320312,25.9286161 24.9607047,26.1 24.75,26.1 C24.5392953,26.1 24.3679687,25.9286161 24.3679687,25.7178743 L24.3679687,25.131707 L23.7820312,25.131707 C23.5713265,25.131707 23.4,24.9603231 23.4,24.7495813 C23.4,24.5388395 23.5713265,24.3674556 23.7820312,24.3674556 L24.3679688,24.3674556 L24.3679687,23.7812884 C24.3679687,23.5705466 24.5392953,23.3991627 24.75,23.3991627 C24.9607047,23.3991627 25.1320312,23.5705466 25.1320312,23.7812884 L25.1320312,24.3674556 L25.7179687,24.3674556 C25.9289008,24.3674556 26.1,24.5382849 26.1,24.7495813 C26.1,24.9603231 25.9286735,25.131707 25.7179687,25.131707 L25.1320312,25.131707 Z M24.85,20.7544937 C24.85,21.7786765 24.0217549,22.6089874 23,22.6089874 C21.9782451,22.6089874 21.15,21.7786765 21.15,20.7544937 C21.15,19.7303109 21.9782451,18.9 23,18.9 C24.0217549,18.9 24.85,19.7303109 24.85,20.7544937 Z M23,21.844736 C23.6002847,21.844736 24.0875,21.3564718 24.0875,20.7544937 C24.0875,20.1525156 23.6002847,19.6642514 23,19.6642514 C22.3997153,19.6642514 21.9125,20.1525156 21.9125,20.7544937 C21.9125,21.3564718 22.3997153,21.844736 23,21.844736 Z M20.6621412,25.5173846 C20.6621967,25.518407 20.6622564,25.5195811 20.6623285,25.5209989 C20.6625064,25.5280337 20.6625064,25.5280337 20.6625,25.532656 C20.6625,25.7434615 20.4918921,25.9147817 20.28125,25.9147817 C20.0706079,25.9147817 19.9,25.7434615 19.9,25.532656 C19.900253,25.522732 19.9002613,25.522407 19.9006447,25.5176705 L19.9,25.5170258 C19.9,23.800371 21.2876726,22.4089874 23,22.4089874 C23.6106674,22.4089874 24.1949802,22.5863498 24.6954672,22.9145935 L24.6467437,23.0980263 C24.3878926,23.1138944 24.1407354,23.1901407 23.8327691,23.3267513 C23.5705062,23.2256132 23.2894426,23.1732388 23,23.1732388 C21.7091557,23.1732388 20.6625,24.2225629 20.6625,25.5170258 L20.6621412,25.5173846 Z"></path>
                    </g>
                </g>
            </g>
        </g>
    </g>
</svg>

<svg width="60" height="60" xmlns="http://www.w3.org/2000/svg" xmlns:xlink="http://www.w3.org/1999/xlink"><defs><path d="M23.331 8.252L14.65.582a2.385 2.385 0 0 0-.46-.314c-.043-.022-.087-.044-.134-.063-.028-.014-.06-.025-.087-.035a2.51 2.51 0 0 0-.906-.17H2.28C1.037 0 0 .88 0 1.969V26.03C0 27.12 1.038 28 2.281 28H21.75c1.244 0 2.219-.88 2.219-1.969V9.64c0-.52-.219-1.018-.638-1.387zM14.22 3.02l6.275 5.512h-6.275V3.02zm7.5 23.012H2.25V1.97h9.719V8.53c0 1.089 1.037 1.969 2.281 1.969h7.469v15.531zM14.25 13.234c0-.544-.503-.984-1.125-.984h-8c-.622 0-1.125.44-1.125.984 0 .545.503.985 1.125.985h8c.622 0 1.125-.44 1.125-.985zm6 4.375c0-.544-.503-.984-1.125-.984h-14c-.622 0-1.125.44-1.125.984 0 .545.503.985 1.125.985h14c.622 0 1.125-.44 1.125-.985zm-4 4.375c0-.544-.503-.984-1.125-.984h-10C4.503 21 4 21.44 4 21.984c0 .545.503.985 1.125.985h10c.622 0 1.125-.44 1.125-.985z" id="a"/><path d="M25.718 24.467h-.686v-.686a.282.282 0 0 0-.564 0v.686h-.686a.282.282 0 0 0 0 .565h.686v.686a.282.282 0 0 0 .564 0v-.686h.686a.282.282 0 0 0 0-.565zm-.968-3.713c0-.969-.784-1.754-1.75-1.754s-1.75.785-1.75 1.754c0 .97.784 1.755 1.75 1.755s1.75-.785 1.75-1.755zM23 21.944a1.19 1.19 0 0 1-1.188-1.19c0-.657.533-1.19 1.188-1.19a1.19 1.19 0 0 1 1.188 1.19A1.19 1.19 0 0 1 23 21.944zm1.64 1.054A2.98 2.98 0 0 0 23 22.51c-1.657 0-3 1.347-3 3.008v.016a.282.282 0 1 0 .563 0l-.001-.016a2.44 2.44 0 0 1 3.307-2.284c.23-.134.491-.218.772-.235z" id="b"/></defs><g fill="none" fill-rule="evenodd"><circle fill="#49A7FF" cx="30" cy="30" r="30"/><path d="M38 44.692a6.692 6.692 0 1 1 0-13.384 6.692 6.692 0 0 1 0 13.384zm0-1.384a5.308 5.308 0 1 0 0-10.616 5.308 5.308 0 0 0 0 10.616z" fill="#FFF" fill-rule="nonzero"/><g transform="translate(15 15)"><g fill-rule="nonzero"><use fill="#FFF" fill-rule="evenodd" xlink:href="#a"/><path stroke="#49A7FF" stroke-width=".3" d="M23.232 8.365h0l-8.68-7.67A2.23 2.23 0 0 0 13.99.34l-.033-.014-.044-.017a2.36 2.36 0 0 0-.851-.159H2.28C1.11.15.15.974.15 1.969V26.03c0 .995.96 1.819 2.131 1.819H21.75c1.159 0 2.069-.812 2.069-1.819V9.64c0-.485-.207-.939-.587-1.274zM14.07 2.687l6.823 5.994h-6.673l-.15-.15V2.687zm7.65 23.494H2.25l-.15-.15V1.97l.15-.15h9.719l.15.15V8.53c0 .995.96 1.819 2.131 1.819h7.469l.15.15v15.531l-.15.15zM14.1 13.234c0-.456-.432-.834-.975-.834h-8c-.543 0-.975.378-.975.834 0 .457.432.835.975.835h8c.543 0 .975-.378.975-.835zm6 4.375c0-.456-.432-.834-.975-.834h-14c-.543 0-.975.378-.975.834 0 .457.432.835.975.835h14c.543 0 .975-.378.975-.835zm-4 4.375c0-.456-.432-.834-.975-.834h-10c-.543 0-.975.378-.975.834 0 .457.432.835.975.835h10c.543 0 .975-.378.975-.835z"/></g><circle fill="#49A7FF" cx="22.5" cy="22.5" r="7.5"/><g fill-rule="nonzero"><use fill="#FFF" fill-rule="evenodd" xlink:href="#b"/><path stroke="#FFF" stroke-width=".2" d="M25.132 25.132v.586a.382.382 0 0 1-.764 0v-.586h-.586a.382.382 0 0 1 0-.765h.586v-.586a.382.382 0 0 1 .764 0v.586h.586a.382.382 0 1 1 0 .765h-.586zm-.282-4.378A1.852 1.852 0 0 1 23 22.61c-1.022 0-1.85-.83-1.85-1.855 0-1.024.828-1.854 1.85-1.854 1.022 0 1.85.83 1.85 1.854zM23 21.844a1.09 1.09 0 0 0 0-2.18 1.09 1.09 0 0 0 0 2.18zm-2.338 3.673v.016a.382.382 0 1 1-.761-.015l-.001-.001a3.104 3.104 0 0 1 3.1-3.108c.61 0 1.195.177 1.695.506l-.048.183c-.26.016-.506.092-.814.229a2.34 2.34 0 0 0-3.17 2.19h0z"/></g></g></g></svg>
